X: 104
T: Ma meren
L: 1/8
M: 2/4
K: C
ee2e [I:setbarnb 1]| 
d4 | 
ee2e | 
d4 | 
e de2 | 
d e d e | 
d3A | 
G2z2 | 
G3E | 
D3D | 
d3c | 
d2z2 | 
d cd2 | 
A c A G | 
G3A | 
c2d2 | 
A c/ d/ G E | 
D4 |]

@@@ Tune index: 8978
